Dominus_Dark_Funeral/symbolic/actions/contact-new-symbolic.svg

<svg xmlns="http://www.w3.org/2000/svg" version="1" viewBox="0 0 24 24"><path fill="gray" d="M4.322.305a.381.381 0 0 0-.328.299c-.006.034-.17.84-.055 1.798.163 1.318.779 2.288 1.78 2.807.198.102.401.154.605.178.004.677.022 1.36-.19 2.004-.278.995 0 2.055.723 2.775.621.781 1.385 1.8.96 2.85-.616 1.18-1.84 1.873-2.954 2.502-.294.12-.674.326-.99.57-.284.08-.508.294-.508.601v2.803c0 .37.294.668.668.668h7.313a2.722 2.722 0 0 1 2.72-2.707h2.631v-1.42c-1.477-.797-3.13-1.575-3.957-3.133-.283-1.236.585-2.32 1.348-3.18.752-.955.456-2.214.193-3.284-.035-.383-.025-.789-.017-1.196.026-.012.053-.017.08-.031 1-.519 1.616-1.49 1.779-2.807.116-.958-.046-1.764-.053-1.798a.381.381 0 0 0-.328-.3.385.385 0 0 0-.39.214c-.008.018-.73 1.46-1.913 2.158-.939-.816-2.202-1.166-3.416-1.242h-.002c-1.168-.078-2.312.539-3.074 1.414C5.57 2.255 4.721.538 4.713.518a.385.385 0 0 0-.39-.213zm13.13 14.52v3.06h-3.067v3.043l3.066.021v3.06h3.067v-3.06h3.066v-3.064h-3.066v-3.06H17.45z" color="#000" style="isolation:auto;mix-blend-mode:normal"/></svg>

<?xml version="1.0" encoding="UTF-8" standalone="no"?>
<svg
   xmlns:dc="http://purl.org/dc/elements/1.1/"
   xmlns:cc="http://creativecommons.org/ns#"
   xmlns:rdf="http://www.w3.org/1999/02/22-rdf-syntax-ns#"
   xmlns:svg="http://www.w3.org/2000/svg"
   xmlns="http://www.w3.org/2000/svg"
   xmlns:sodipodi="http://sodipodi.sourceforge.net/DTD/sodipodi-0.dtd"
   xmlns:inkscape="http://www.inkscape.org/namespaces/inkscape"
   version="1"
   viewBox="0 0 24 24"
   id="svg4"
   sodipodi:docname="contact-new-symbolic.svg"
   inkscape:version="0.92.4 (5da689c313, 2019-01-14)">
  <metadata
     id="metadata10">
    <rdf:RDF>
      <cc:Work
         rdf:about="">
        <dc:format>image/svg+xml</dc:format>
        <dc:type
           rdf:resource="http://purl.org/dc/dcmitype/StillImage" />
        <dc:title></dc:title>
      </cc:Work>
    </rdf:RDF>
  </metadata>
  <defs
     id="defs8" />
  <sodipodi:namedview
     pagecolor="#ffffff"
     bordercolor="#666666"
     borderopacity="1"
     objecttolerance="10"
     gridtolerance="10"
     guidetolerance="10"
     inkscape:pageopacity="0"
     inkscape:pageshadow="2"
     inkscape:window-width="1112"
     inkscape:window-height="480"
     id="namedview6"
     showgrid="false"
     inkscape:zoom="9.8333333"
     inkscape:cx="1.0677966"
     inkscape:cy="12"
     inkscape:window-x="0"
     inkscape:window-y="25"
     inkscape:window-maximized="0"
     inkscape:current-layer="svg4" />
  <path
     d="M 4.322,0.305 A 0.381,0.381 0 0 0 3.994,0.604 C 3.988,0.638 3.824,1.444 3.939,2.402 4.102,3.72 4.718,4.69 5.719,5.209 5.917,5.311 6.12,5.363 6.324,5.387 c 0.004,0.677 0.022,1.36 -0.19,2.004 -0.278,0.995 0,2.055 0.723,2.775 0.621,0.781 1.385,1.8 0.96,2.85 -0.616,1.18 -1.84,1.873 -2.954,2.502 -0.294,0.12 -0.674,0.326 -0.99,0.57 -0.284,0.08 -0.508,0.294 -0.508,0.601 v 2.803 c 0,0.37 0.294,0.668 0.668,0.668 h 7.313 a 2.722,2.722 0 0 1 2.72,-2.707 h 2.631 v -1.42 C 15.22,15.236 13.567,14.458 12.74,12.9 12.457,11.664 13.325,10.58 14.088,9.72 14.84,8.765 14.544,7.506 14.281,6.436 14.246,6.053 14.256,5.647 14.264,5.24 14.29,5.228 14.317,5.223 14.344,5.209 15.344,4.69 15.96,3.719 16.123,2.402 16.239,1.444 16.077,0.638 16.07,0.604 a 0.381,0.381 0 0 0 -0.328,-0.3 0.385,0.385 0 0 0 -0.39,0.214 C 15.344,0.536 14.622,1.978 13.439,2.676 12.5,1.86 11.237,1.51 10.023,1.434 H 10.021 C 8.853,1.356 7.709,1.973 6.947,2.848 5.57,2.255 4.721,0.538 4.713,0.518 A 0.385,0.385 0 0 0 4.323,0.305 Z m 13.13,14.52 v 3.06 h -3.067 v 3.043 l 3.066,0.021 v 3.06 h 3.067 v -3.06 h 3.066 v -3.064 h -3.066 v -3.06 H 17.45 Z"
     style="color:#000000;isolation:auto;mix-blend-mode:normal;fill:#808080"
     id="path2"
     inkscape:connector-curvature="0" />
</svg>
